X: 37
T: Polska efter Petter Dufva
T: (Ma6 37)
O: Småland
R: Polska
M: 3/4
L: 1/8
Z: 2010 John Chambers <jc:trillian.mit.edu>
K: D
|: "D"d>c df A2 | "G"GF "A"EG "D"FD \
|  "D"d>c df A2 | "A7"GF/E/ "D"F2 D2 :|
|: "D"f>d df df | "Em"g>e eg "A7"eg \
|  "D"f>d df df | "Em"g>e eg "A7"eg \
|  "D"f>a "G"gf "(A7)"ed | "A7"ed/c/ "D"d4 :|

